X:1
T: Up in the Morning Early
C:
R:Jig
Q:180
K:Em
M:6/8
L:1/16
|:B,2|E4F2 G4A2|B2c2d2 D4D2|E2F2G2 B2A2F2|E6 B4B,2|
E4F2 G4A2|B2c2d2 D4D2|E2F2G2 B2A2F2|E6 B4:|
|:G2|G2A2G2 G4G2|A2B2A2 A4A2|B2c2d2 e2d2c2|B6 d4D2|
G2A2G2 G2A2G2|A2B2d2 e2d2c2|B2A2G2 F2E2^D2|E6 B4:|
